X:1
T:Zulu King
M:4/4
L:1/4
K:F
 C| F A F C/2C/2| F A F C/2C/2| F F/2F/2 G F| E- G- C| C| E G E C|\
 C C D E| F3 C| F A F| C/2C/2| F A F C/2C/2| F F/2F/2 G F| E- G- C C|\
 E G E| C| C C D E| F3 C-| F A A C-| F A A| C-| F F G F3/4 F/4| E- G- E C-|\
 E C-| E| C| C C D E3/4 E/4| F3 A| C C2 D| F3/2 F/2| A2| G/2G/2 G2 F|\
 D4| G/2G/2 G2 F| D C D| E| F/2F/2 F2 D| C C/2C/2 C/2C/2 C/2C/2| C C2 D|\
 F2| A3/2 A/2| G G2 F| D4| G/2G/2 G2 E| D2 E2| F/2F/2 F/2F/2 F F| F E F z|\
 z E F z| z E F E| F E F A| C C2 D| F3/2 F/2 A2| G/2G/2 G2 F| D4| G/2G/2 G2 F|\
 D C D E| F/2F/2 F2 D| C C/2C/2| C/2C/2 C/2C/2| C C2 D| A2 A3/2 A/2|\
 G G2 F| D4| G/2G/2 G2 E| D2 E2| F/2F/2 F/2F/2 F F|
